X:1
T:Title
%%score { ( 1 3 ) | ( 2 4 ) }
L:1/8
Q:1/4=100
M:4/4
K:C
V:1 treble nm="Grand Piano"
V:3 treble 
V:2 bass 
V:4 bass 
V:1
 [EG]2 [CE]>[DF] [EG][Ec][FA][Fc] | [CEG]8 | [CEG]2 [G,CE]>[G,DF] [EG][Ec]Bc | %3
w: J.~B.~Herbert * * * * * *|||
 d6[K:bass][K:treble] z2 | [Ge]3 [Ge] [FGd][EGc][DGB][CGc] | [CFA]2 [Af]2 [Ae]2 [DAd]2 | %6
w: |||
 [EGc]3 [EG] [DFA]2 [DFB]2 |[M:3/4] [Ec]6 |[M:1/4] [_Be]2 | %9
w: |||
[M:4/4] [Af]2 [CAc]>[CAc] [CFA][FAc] z2 | [Ge]2 c>c Gc[K:bass]E,G, | c2 cc [^Fd][Fc][DFB][FA] | %12
w: |||
[M:3/4] [Gd]6 |[M:1/4] [B,FG]2 |[M:4/4] [Ee]3 [EGc] [FGd][EGc][DGB][CGc] | %15
w: |||
 [CFA]2 [Af]2 [Ae]2 [DAd]2 | [EGc]3 [EG] [DFA]2 [DFB]2 | [CEc]6 z2 |] %18
w: |||
V:2
 [C,C]2 [C,G,]>[C,G,] [C,G,][C,G,][C,F,][C,A,] | C,2 E,G, C,4 | %2
 C,2 C,>C, [C,C][C,C][K:treble][A,D^F][A,CF] | [B,G]6[K:bass] E,D, | [C,C]3 [C,C] C,C,D,E, | %5
 F,2 [D,D]2 [E,^C]2 F,2 | G,3 G, G,,2 G,,2 |[M:3/4] [C,C]6 |[M:1/4] [C,C]2 | %9
[M:4/4] [F,C]2 F,>F, F,F,A,F, | C2[K:treble] [G,E]>[G,E] [CE][EG] z2 | %11
 [CE]2 [CE][CE] D,-[D,A,] z D |[M:3/4] B,3 A, G,F, |[M:1/4] E,D, |[M:4/4] [C,C]3 C, C,C,D,E, | %15
 F,2 [D,D]2 [E,^C]2 F,2 | G,3 G, G,,2 G,,2 | C,6 z2 |] %18
V:3
 x8 | x8 | x8 | z2[K:bass] G,G, G,F,[K:treble] [B,G]2 | x8 | x8 | x8 |[M:3/4] x6 |[M:1/4] x2 | %9
[M:4/4] x8 | x6[K:bass] x2 | x8 |[M:3/4] D3 C B,2 |[M:1/4] x2 |[M:4/4] x8 | x8 | x8 | x8 |] %18
V:4
 x8 | x8 | x6[K:treble] x2 | G,2 z2 z4[K:bass] | x8 | x8 | x8 |[M:3/4] x6 |[M:1/4] x2 |[M:4/4] x8 | %10
 C,6[K:treble] z2 | A,4 .A,2 C2 |[M:3/4] x6 |[M:1/4] x2 |[M:4/4] x8 | x8 | x8 | x8 |] %18

